X:69
T:Road to Boston
M:4/4
C: Traditional
R: Reel
K: D
ee|: "D"f6 ef| g2f2 e2d2| "A"c2d2 e2f2| "D"d2A2 F2A2|
|"D"f6 ef| g2f2 e2d2| "A"c2d2 e2c2|1 "D"d6 ee :|2 "D"d4 fg ||
|: "D"a6 ^ga| "B"b2a2 =g2f2| "Em"g6 fg| "A"a2g2 f2e2|
| "D"f6 ef| "G"g2f2 e2d2| "A"c2d2 e2c2|1 "D"d2A2 d2 fg :|2 "D"d2A2d4 ||

